packages/foundations/assets/icons/functional/images/notification/check_circle_24.svg

<svg width="24" height="24" viewBox="0 0 24 24" fill="none" xmlns="http://www.w3.org/2000/svg">
<g clip-path="url(#clip0_187_150)">
<path fill-rule="evenodd" clip-rule="evenodd" d="M12 2C17.5312 2 22 6.4688 22 12C22 17.5312 17.5312 22 12 22C6.46875 22 2 17.5312 2 12C2 6.4688 6.46875 2 12 2ZM12 4C7.5625 4 4 7.5625 4 12C4 16.4375 7.5625 20 12 20C16.4375 20 20 16.4375 20 12C20 7.5625 16.4375 4 12 4ZM16.5 8.375C16.25 8.375 16 8.4688 15.8125 8.6562L10.1562 14.3125L8.125 12.3125C7.90625 12.0938 7.71875 12 7.4375 12C6.90625 12 6.4375 12.4375 6.4375 13C6.4375 13.25 6.53125 13.5312 6.71875 13.7188L9.4375 16.4375C9.65625 16.6562 9.875 16.75 10.125 16.75C10.4062 16.75 10.6562 16.625 10.8438 16.4375L17.2188 10.0938C17.4688 9.8438 17.5312 9.5938 17.5312 9.3438C17.5312 8.8438 17.0625 8.375 16.5 8.375Z" fill="#1A1C1F"/>
</g>
<defs>
<clipPath id="clip0_187_150">
<rect width="24" height="24" fill="white"/>
</clipPath>
</defs>
</svg>

<svg xmlns="http://www.w3.org/2000/svg" width="24" height="24" fill="none"><g clip-path="url(#a)"><path fill="#1A1C1F" fill-rule="evenodd" d="M12 2a9.99 9.99 0 0 1 10 10 9.99 9.99 0 0 1-10 10A9.99 9.99 0 0 1 2 12 9.99 9.99 0 0 1 12 2m0 2c-4.437 0-8 3.563-8 8 0 4.438 3.563 8 8 8 4.438 0 8-3.562 8-8 0-4.437-3.562-8-8-8m4.5 4.375a.97.97 0 0 0-.687.281l-5.657 5.656-2.031-2c-.219-.218-.406-.312-.687-.312-.532 0-1 .438-1 1 0 .25.093.531.28.719l2.72 2.719c.218.218.437.312.687.312.281 0 .531-.125.719-.312l6.375-6.344a1 1 0 0 0 .312-.75c0-.5-.468-.969-1.031-.969" clip-rule="evenodd"/></g><defs><clipPath id="a"><path fill="#fff" d="M0 0h24v24H0z"/></clipPath></defs></svg>
